X: 20184
M: 2/4
L: 1/16
K: G
.G2.B2.d2.g2 | f2a2 d2cB | A2e2c2A2 | (G4 F2)D2 |\
.G2.B2.d2.g2 | fgag fedc | BAfe dcBA | G4 g4 H|:\
=c2cc c2d2 | c2de =fgab | c'4 ^f4 | g6 b2 |\
a2d2a2d2 | g2d2b2d2 | =f2B2 a2g2 | c4 c2B"^D.C."A |]



